lib/brands/icons/snapchat-alt.svg

<svg xmlns="http://www.w3.org/2000/svg" fill="none" aria-hidden="true" viewBox="0 0 48 48"><g id="snapchat-alt-Icon"><rect width="48" height="48" fill="#FFE400" rx="24"/><g id="Group"><path id="Path" fill="white" d="M36.8713 30.8749C32.2256 28.626 31.4852 25.1538 31.4522 24.8963C31.4124 24.5843 31.3672 24.339 31.7113 24.0217C32.0432 23.7151 33.5156 22.8038 33.9242 22.5186C34.5994 22.0465 34.8968 21.5751 34.6776 20.9956C34.5243 20.5947 34.151 20.4437 33.7578 20.4437C33.6338 20.4441 33.5102 20.458 33.3892 20.4851C32.6472 20.6461 31.9267 21.0178 31.5097 21.1183C31.4596 21.1312 31.4082 21.1381 31.3564 21.1389C31.1341 21.1389 31.0498 21.0401 31.0713 20.7726C31.1234 19.9616 31.2338 18.3788 31.1058 16.9003C30.9303 14.866 30.2741 13.8581 29.4961 12.9666C29.1198 12.5343 27.3722 10.6771 23.9997 10.6771C20.6271 10.6771 18.8818 12.5343 18.5078 12.9613C17.7275 13.8527 17.0721 14.8606 16.8981 16.8949C16.7701 18.3735 16.8851 19.9555 16.9326 20.7672C16.9479 21.0217 16.8698 21.1336 16.6475 21.1336C16.5957 21.1327 16.5443 21.1257 16.4942 21.1129C16.078 21.0125 15.3575 20.6407 14.6155 20.4798C14.4945 20.4526 14.3709 20.4388 14.2468 20.4384C13.8521 20.4384 13.4803 20.5917 13.327 20.9902C13.1078 21.5697 13.4037 22.0411 14.0813 22.5133C14.4898 22.7984 15.9622 23.709 16.2941 24.0163C16.6375 24.3337 16.5931 24.579 16.5532 24.8909C16.5202 25.1523 15.779 28.6245 11.1341 30.8695C10.862 31.0014 10.3991 31.2804 11.2154 31.7311C12.4969 32.4393 13.35 32.3634 14.0131 32.7904C14.5757 33.1529 14.243 33.9347 14.6523 34.2168C15.1551 34.564 16.6413 34.1923 18.5614 34.8262C20.171 35.3566 21.1491 36.8551 24.0035 36.8551C26.8579 36.8551 27.8643 35.3497 29.4456 34.8262C31.3618 34.1923 32.8511 34.564 33.3547 34.2168C33.7632 33.9347 33.4313 33.1529 33.9939 32.7904C34.6569 32.3634 35.5093 32.4393 36.7916 31.7311C37.6064 31.2857 37.1434 31.0067 36.8713 30.8749Z"/><path id="Shape" fill="black" fill-rule="evenodd" d="M37.835 29.4883C38.2872 29.7397 38.6843 30.0432 38.8927 30.6104C39.1265 31.2451 38.9832 31.964 38.4129 32.5742L38.4053 32.5834C38.1751 32.838 37.9029 33.0512 37.6004 33.2134C37.0003 33.5429 36.3619 33.7973 35.6996 33.9707C35.5728 34.0046 35.4525 34.0595 35.3439 34.1332C35.2305 34.2335 35.1833 34.3585 35.1247 34.514C35.0802 34.6318 35.0292 34.7672 34.9377 34.9227C34.7806 35.1964 34.5649 35.432 34.3061 35.6125C33.6867 36.0402 32.9908 36.0671 32.2534 36.0954L32.2512 36.0955C31.5857 36.1208 30.8314 36.1494 29.97 36.4342C29.6228 36.5492 29.2541 36.7753 28.8272 37.0374L28.8245 37.0391C27.7846 37.6759 26.3617 38.5474 23.9983 38.5474C21.6329 38.5474 20.2195 37.679 19.1871 37.0443C18.7571 36.7776 18.3861 36.5492 18.0289 36.4311C17.1666 36.1468 16.4116 36.1176 15.7455 36.0924C15.0082 36.064 14.3122 36.0372 13.6929 35.6095C13.4743 35.4577 13.2861 35.2664 13.1379 35.0453C12.9941 34.8369 12.9278 34.6607 12.872 34.5123C12.8133 34.3563 12.7663 34.2311 12.6527 34.1317C12.5369 34.0543 12.4089 33.9971 12.2741 33.9623C11.6207 33.7894 10.9908 33.5374 10.3985 33.2119C10.1138 33.0604 9.85507 32.8645 9.632 32.6317C9.02417 32.0077 8.86781 31.2673 9.10695 30.6165C9.37779 29.8805 9.96464 29.5862 10.5802 29.2775C10.6858 29.2245 10.7923 29.1711 10.8982 29.115C12.2626 28.3738 13.3311 27.4479 14.0776 26.3556C14.2905 26.0474 14.4754 25.7209 14.6303 25.3799C14.7031 25.1806 14.7016 25.0725 14.6525 24.9721C14.5999 24.8901 14.5304 24.8203 14.4486 24.7675C14.2148 24.6126 13.9765 24.4578 13.8132 24.352C13.7529 24.3125 13.695 24.2747 13.6398 24.2386C13.4188 24.0943 13.2407 23.978 13.118 23.8921C12.5393 23.4874 12.1346 23.0574 11.8809 22.5768C11.7047 22.2442 11.6023 21.8776 11.5805 21.5018C11.5586 21.1261 11.618 20.75 11.7544 20.3992C12.1361 19.3905 13.0904 18.7643 14.2455 18.7643C14.489 18.7641 14.7318 18.7898 14.9698 18.841C15.0335 18.8548 15.0963 18.8693 15.1584 18.8854C15.1484 18.1994 15.1638 17.4674 15.2251 16.7507C15.4428 14.2336 16.325 12.9106 17.2448 11.8575C17.8343 11.1957 18.5295 10.6362 19.302 10.2019C20.6993 9.40471 22.2745 9 23.9998 9C25.7252 9 27.308 9.40471 28.7038 10.2019C29.4744 10.6361 30.1682 11.1945 30.7572 11.8544C31.677 12.9076 32.5592 14.2282 32.7769 16.7477C32.8382 17.4643 32.8536 18.1925 32.8428 18.8824C32.9049 18.8663 32.9685 18.8517 33.0322 18.8379C33.2702 18.7867 33.513 18.761 33.7565 18.7612C34.9108 18.7612 35.8636 19.3875 36.2468 20.3962C36.3827 20.7468 36.4414 21.1226 36.419 21.4979C36.3967 21.8733 36.2938 22.2394 36.1173 22.5715C35.8643 23.0521 35.4596 23.4821 34.8809 23.8868C34.7276 23.9959 34.49 24.1497 34.19 24.3439L34.1857 24.3467C34.0163 24.4563 33.7665 24.6188 33.5243 24.779C33.4518 24.8284 33.3905 24.8923 33.3441 24.9668C33.2974 25.0633 33.2943 25.1691 33.3595 25.3554C33.5165 25.7037 33.7045 26.0372 33.9213 26.3518C34.6847 27.4693 35.7854 28.4121 37.195 29.1595C37.2666 29.1967 37.3384 29.2328 37.4099 29.2688C37.4753 29.3018 37.5405 29.3346 37.605 29.3679C37.6717 29.3986 37.7499 29.4385 37.835 29.4883ZM35.031 32.4097C35.5148 32.2808 36.0881 32.1281 36.7903 31.7402C37.6066 31.2857 37.1436 31.0067 36.8692 30.8695C32.2235 28.6244 31.4831 25.1522 31.4501 24.8909C31.4487 24.8803 31.4474 24.8698 31.446 24.8593C31.4077 24.5622 31.3768 24.3228 31.7092 24.0163C31.9349 23.8073 32.6878 23.3195 33.2751 22.9389C33.5516 22.7598 33.7913 22.6045 33.9221 22.5132C34.5989 22.0411 34.8947 21.5697 34.6755 20.9902C34.5222 20.5916 34.1505 20.4383 33.7557 20.4383C33.6317 20.4387 33.5081 20.4526 33.3871 20.4797C32.9497 20.5746 32.5199 20.7427 32.1552 20.8853C31.9012 20.9846 31.6788 21.0716 31.5076 21.1128C31.4575 21.1258 31.4061 21.1327 31.3543 21.1335C31.132 21.1335 31.0516 21.0347 31.0692 20.7672C31.071 20.7387 31.0729 20.7093 31.0749 20.6789C31.1288 19.8451 31.2272 18.3215 31.1037 16.8948C30.9297 14.8606 30.2736 13.8526 29.494 12.9612C29.12 12.5343 27.3578 10.6847 23.9968 10.6847C20.6357 10.6847 18.8782 12.542 18.5041 12.9704C17.7254 13.8618 17.07 14.8698 16.8945 16.904C16.7769 18.263 16.8645 19.7093 16.9163 20.5647C16.9209 20.64 16.9252 20.7107 16.929 20.7764C16.9443 21.0308 16.8661 21.1427 16.6438 21.1427C16.5921 21.1418 16.5407 21.1349 16.4905 21.122C16.3198 21.0808 16.098 20.9941 15.8446 20.8949C15.4799 20.7522 15.0496 20.5839 14.6119 20.4889C14.4909 20.4618 14.3672 20.4479 14.2432 20.4475C13.8508 20.4475 13.4767 20.5985 13.3234 20.9994C13.1042 21.5789 13.4016 22.0503 14.0776 22.5224C14.2085 22.6138 14.4487 22.7695 14.7256 22.949C15.3128 23.3296 16.065 23.8172 16.2905 24.0255C16.6228 24.3325 16.5919 24.5721 16.5535 24.87C16.5522 24.8799 16.5509 24.89 16.5496 24.9001C16.5166 25.1576 15.7754 28.6298 11.1305 30.8787C10.8584 31.0105 10.3954 31.2895 11.2117 31.7402C11.9121 32.1251 12.4843 32.2771 12.9675 32.4054C13.3686 32.5118 13.7084 32.6021 14.0094 32.7957C14.3136 32.9917 14.3563 33.3103 14.3959 33.6063C14.4296 33.8576 14.461 34.0925 14.6487 34.2221C14.867 34.3726 15.2703 34.388 15.8133 34.4088C16.5233 34.436 17.472 34.4723 18.5578 34.8315C19.1028 35.0111 19.5764 35.3021 20.075 35.6085C21.0489 36.207 22.1183 36.8642 24.0021 36.8642C25.8928 36.8642 26.9737 36.2008 27.9499 35.6017C28.4443 35.2983 28.9118 35.0113 29.4442 34.8353C30.532 34.4762 31.4805 34.4398 32.1899 34.4127C32.7326 34.3919 33.1353 34.3764 33.3533 34.2259C33.5413 34.0964 33.5726 33.8614 33.6061 33.61C33.6455 33.3141 33.688 32.9956 33.9926 32.7995C34.2925 32.6064 34.6312 32.5161 35.031 32.4097Z" clip-rule="evenodd"/></g></g></svg>

<svg xmlns="http://www.w3.org/2000/svg" fill="none" aria-hidden="true" viewBox="0 0 48 48"><rect width="48" height="48" fill="#FFE400" rx="24"/><path fill="#fff" d="M36.871 30.875c-4.645-2.249-5.386-5.721-5.419-5.979-.04-.312-.085-.557.26-.874.331-.307 1.804-1.218 2.212-1.503.675-.472.973-.944.754-1.523-.154-.401-.527-.552-.92-.552-.124 0-.248.014-.369.041-.742.161-1.462.533-1.88.633a.655.655 0 0 1-.153.02c-.222 0-.306-.098-.285-.365.052-.811.163-2.394.035-3.873-.176-2.034-.832-3.042-1.61-3.933-.376-.433-2.124-2.29-5.496-2.29-3.373 0-5.118 1.857-5.492 2.284-.78.892-1.436 1.9-1.61 3.934-.128 1.479-.013 3.06.035 3.872.015.255-.063.367-.285.367a.666.666 0 0 1-.154-.021c-.416-.1-1.136-.472-1.878-.633a1.706 1.706 0 0 0-.37-.042c-.394 0-.766.154-.919.552-.22.58.077 1.051.754 1.523.409.285 1.881 1.196 2.213 1.503.343.318.3.563.26.875-.034.261-.775 3.734-5.42 5.979-.272.131-.735.41.081.861 1.282.708 2.135.632 2.798 1.06.563.362.23 1.144.64 1.426.502.347 1.988-.025 3.908.61 1.61.53 2.588 2.028 5.442 2.028 2.855 0 3.861-1.505 5.443-2.029 1.916-.634 3.405-.262 3.909-.61.408-.281.076-1.063.639-1.426.663-.427 1.515-.35 2.798-1.059.814-.445.351-.724.08-.856Z"/><path fill="#000" fill-rule="evenodd" d="M37.835 29.488c.452.252.85.555 1.058 1.122.233.635.09 1.354-.48 1.964l-.008.01a2.99 2.99 0 0 1-.805.63c-.6.329-1.238.583-1.9.757a1.173 1.173 0 0 0-.356.162c-.114.1-.16.225-.22.381a2.472 2.472 0 0 1-.186.409 2.14 2.14 0 0 1-.632.69c-.62.427-1.315.454-2.053.482h-.002c-.665.026-1.42.054-2.281.34-.347.114-.716.34-1.143.602l-.003.002c-1.04.637-2.462 1.508-4.826 1.508-2.365 0-3.779-.868-4.81-1.503-.43-.266-.802-.495-1.16-.613-.861-.284-1.616-.313-2.282-.339-.738-.028-1.434-.055-2.053-.483a2.132 2.132 0 0 1-.555-.564 2.255 2.255 0 0 1-.266-.533c-.059-.156-.106-.28-.22-.38a1.238 1.238 0 0 0-.378-.17 8.306 8.306 0 0 1-1.875-.75 3.039 3.039 0 0 1-.767-.58c-.608-.624-.764-1.365-.525-2.015.27-.736.858-1.03 1.473-1.34.106-.053.212-.106.318-.162 1.365-.741 2.433-1.667 3.18-2.76.213-.308.397-.634.552-.975.073-.2.072-.307.022-.408a.681.681 0 0 0-.203-.205 76 76 0 0 0-.636-.415l-.173-.113c-.221-.145-.4-.261-.522-.347-.579-.405-.983-.835-1.237-1.315a2.62 2.62 0 0 1-.127-2.178c.382-1.009 1.336-1.635 2.492-1.635a3.43 3.43 0 0 1 .912.121 21.71 21.71 0 0 1 .067-2.134c.218-2.517 1.1-3.84 2.02-4.894a8.016 8.016 0 0 1 2.057-1.655C20.699 9.405 22.275 9 24 9c1.725 0 3.308.405 4.704 1.202.77.434 1.464.992 2.053 1.652.92 1.054 1.802 2.374 2.02 4.894.061.716.077 1.444.066 2.134a3.43 3.43 0 0 1 .914-.121c1.154 0 2.107.627 2.49 1.635a2.617 2.617 0 0 1-.13 2.175c-.253.481-.657.911-1.236 1.316-.153.109-.391.263-.691.457l-.004.003c-.17.11-.42.272-.662.432a.63.63 0 0 0-.18.188c-.047.096-.05.202.015.388.157.349.346.682.562.997.764 1.117 1.864 2.06 3.274 2.808l.215.109.195.099c.067.03.145.07.23.12Zm-2.804 2.922c.484-.13 1.057-.282 1.76-.67.816-.454.353-.733.078-.87-4.645-2.246-5.386-5.718-5.419-5.98l-.004-.03c-.038-.298-.07-.537.263-.844.226-.209.979-.696 1.566-1.077.277-.18.516-.334.647-.426.677-.472.973-.943.754-1.523-.154-.398-.526-.552-.92-.552-.124 0-.248.015-.369.042-.437.095-.867.263-1.232.405-.254.1-.476.187-.647.228a.65.65 0 0 1-.154.02c-.222 0-.302-.098-.285-.366l.006-.088c.054-.834.152-2.357.029-3.784-.174-2.034-.83-3.042-1.61-3.934-.374-.427-2.136-2.276-5.497-2.276-3.361 0-5.119 1.857-5.493 2.285-.779.892-1.434 1.9-1.61 3.934-.117 1.359-.03 2.805.022 3.66l.013.212c.015.255-.063.367-.285.367a.662.662 0 0 1-.153-.021 5.667 5.667 0 0 1-.646-.227c-.365-.143-.795-.311-1.233-.406a1.713 1.713 0 0 0-.369-.041c-.392 0-.766.15-.92.551-.219.58.079 1.051.755 1.523.13.092.37.248.648.427.587.38 1.339.868 1.565 1.076.332.308.3.547.262.845l-.003.03c-.033.258-.775 3.73-5.42 5.979-.272.131-.735.41.082.861.7.385 1.272.537 1.755.665.402.107.741.197 1.042.39.305.197.347.515.387.811.034.252.065.486.253.616.218.15.621.166 1.164.187.71.027 1.659.063 2.745.422.545.18 1.018.471 1.517.777.974.599 2.043 1.256 3.927 1.256 1.89 0 2.972-.663 3.948-1.262.494-.304.962-.59 1.494-.767 1.088-.359 2.037-.395 2.746-.422.543-.021.945-.037 1.163-.187.188-.13.22-.365.253-.616.04-.296.082-.614.387-.81.3-.194.638-.284 1.038-.39Z" clip-rule="evenodd"/></svg>
